X:1
T:Title
%%score { ( 1 3 ) | ( 2 4 ) }
L:1/8
Q:1/4=87
M:6/8
K:C
V:1 treble nm="Grand Piano"
V:3 treble 
V:2 bass 
V:4 bass 
V:1
 [Ec][EB][EA] [Ec][EB][EA] | [Fc]FF F3 | BAG [FB][FA][DG] | %3
 E6[Q:1/4=86][Q:1/4=84][Q:1/4=83][Q:1/4=82][Q:1/4=81][Q:1/4=79][Q:1/4=78][Q:1/4=77][Q:1/4=75][Q:1/4=74][Q:1/4=73][Q:1/4=72][Q:1/4=70][Q:1/4=69][Q:1/4=68][Q:1/4=67] | %4
 [^CA][CA][CA] [CA][CG][CE] | FAA A3 | ^F[FA][FA] [FA][FB][Fc] | dBA G3 | %8
 [Ec][EB][EA] [Ec][EB][EA] | [Fc]FF F3 | %10
 BAG Bcd[Q:1/4=64][Q:1/4=62][Q:1/4=60][Q:1/4=58][Q:1/4=56][Q:1/4=54][Q:1/4=52] | c2- [Fc-] [Ec]3 |] %12
V:2
 [C,G,][C,G,][C,G,] [C,G,][C,G,][C,G,] | [D,G,][K:treble][G,B,D][G,B,D] [G,B,D]3 | %2
 [G,DF][G,CF][G,B,F][K:bass] [G,,G,][A,,G,][B,,G,] | [C,G,C]3 [B,,^G,]3 | %4
 [A,,A,][A,,E,][A,,E,] [A,,E,][A,,E,][A,,A,] | [D,A,D][F,A,D][E,G,^C] [D,F,D]3 | %6
 [D,A,D][D,C][D,C] [D,C][D,B,][D,A,] | [G,B,F][G,DF][G,CF] [G,B,F]3 | %8
 [C,C][C,G,][C,G,] [C,G,][C,G,][C,G,] | [D,G,][K:treble][G,B,D][G,B,C] [G,B,D]3 | %10
 [G,DF][G,CF][G,B,F] [G,F][G,A,F][G,B,F] | z2 A, G,3 |] %12
V:3
 x6 | x6 | x6 | z3 D3 | x6 | x6 | x6 | x6 | x6 | x6 | x6 | .[CE]3 z3 |] %12
V:4
 x6 | x[K:treble] x5 | x3[K:bass] x3 | x6 | x6 | x6 | x6 | x6 | x6 | x[K:treble] x5 | x6 | C,6 |] %12

